X: 72
T: I Was Ordered to Return
C: Teton Sioux band 1911-1914
N: Derived from sioux072.krn
O: South Dakota, U.S.A.
N: Teton Sioux Music by Frances Densmore, 1918
Z: transcribed to **kern format by Craig Sapp
L: 1/16
M: 3/4
Q: 1/4=58
K: Db clef=bass
%%linebreak <none>
A,3 A, [I:setbarnb 1]| 
D2> D2D4F E F E | 
D2> A,2 A,2> A,2 A,3 F, | 
A,2> A,2A,4D B, B, A, | 
A,2> A,2 (A,2 F,>) F, F,2 E,3/ D,/ ||  
[M:2/4]D,4D,4 | 
D,8 | 
D,7A, ||  
[M:3/4]D2> D2D4F2 E3/ E/ ||  
[M:2/4]D2> A,2A,4 | 
A,4-A,3 F, ||  
[M:3/4]A,2> A,2A,4D2 B,3/ B,/ | 
A,2> A,2 (A,2 F,>) F, (F,2 E,3/) E,/ ||  
[M:2/4]D,4D,4 | 
D,8 | 
D,4z4 |]  



